public/train-bullets/6d.svg

<svg xmlns="http://www.w3.org/2000/svg" xml:space="preserve" style="fill-rule:evenodd;clip-rule:evenodd;stroke-linejoin:round;stroke-miterlimit:1.41421" viewBox="0 0 100 100"><path d="M2.407 5H95v90H2.407z" style="fill:#00933b" transform="rotate(45 30.661 60.1)scale(.76367 .78567)"/><path d="M18.141 20.305q1.617 1.899 4.107 1.899 2.439 0 3.838-1.835 1.4-1.836 1.399-4.762 0-3.26-1.592-4.993-1.591-1.733-3.902-1.733-1.874 0-3.311 1.129-2.157 1.67-2.157 5.391 0 3.004 1.618 4.904M26.818-.669q0-.898-.694-1.977-1.18-1.745-3.568-1.745-3.568 0-5.083 4.004-.822 2.208-1.129 6.521 1.36-1.617 3.157-2.362 1.797-.744 4.108-.744 4.954 0 8.125 3.363 3.17 3.362 3.17 8.6 0 5.21-3.106 9.19t-9.653 3.979q-7.033 0-10.371-5.879-2.593-4.594-2.593-11.86 0-4.261.36-6.931.641-4.75 2.49-7.907 1.591-2.695 4.171-4.339 2.58-1.642 6.174-1.642 5.187 0 8.267 2.657t3.465 7.072z" style="fill:#fff;fill-rule:nonzero" transform="translate(21.903 39.52)scale(1.26802)"/></svg>

<?xml version="1.0" encoding="UTF-8" standalone="no"?>
<!DOCTYPE svg PUBLIC "-//W3C//DTD SVG 1.1//EN" "http://www.w3.org/Graphics/SVG/1.1/DTD/svg11.dtd">
<svg width="100%" height="100%" viewBox="0 0 100 100" version="1.1" xmlns="http://www.w3.org/2000/svg" xmlns:xlink="http://www.w3.org/1999/xlink" xml:space="preserve" xmlns:serif="http://www.serif.com/" style="fill-rule:evenodd;clip-rule:evenodd;stroke-linejoin:round;stroke-miterlimit:1.41421;">
    <g id="_6-Diamond" serif:id="6 Diamond">
        <g transform="matrix(0.539996,0.539996,-0.555556,0.555556,51.4781,-4.07742)">
            <rect x="2.407" y="5" width="92.593" height="90" style="fill:rgb(0,147,59);"/>
        </g>
        <g transform="matrix(1.26802,0,0,1.26802,21.9029,39.5201)">
            <path d="M18.141,20.305C19.219,21.571 20.588,22.204 22.248,22.204C23.874,22.204 25.153,21.593 26.086,20.369C27.019,19.145 27.485,17.558 27.485,15.607C27.485,13.433 26.954,11.769 25.893,10.614C24.832,9.458 23.532,8.881 21.991,8.881C20.742,8.881 19.638,9.257 18.68,10.01C17.242,11.123 16.523,12.92 16.523,15.401C16.523,17.404 17.062,19.038 18.141,20.305ZM26.818,-0.669C26.818,-1.268 26.587,-1.927 26.124,-2.646C25.337,-3.809 24.148,-4.391 22.556,-4.391C20.177,-4.391 18.483,-3.056 17.473,-0.387C16.925,1.085 16.549,3.259 16.344,6.134C17.251,5.056 18.303,4.269 19.501,3.772C20.699,3.276 22.068,3.028 23.609,3.028C26.912,3.028 29.62,4.149 31.734,6.391C33.847,8.633 34.904,11.499 34.904,14.991C34.904,18.465 33.869,21.528 31.798,24.181C29.727,26.834 26.51,28.16 22.145,28.16C17.456,28.16 13.999,26.201 11.774,22.281C10.045,19.218 9.181,15.265 9.181,10.421C9.181,7.58 9.301,5.27 9.541,3.49C9.968,0.324 10.799,-2.312 12.031,-4.417C13.092,-6.214 14.482,-7.66 16.202,-8.756C17.922,-9.851 19.98,-10.398 22.376,-10.398C25.834,-10.398 28.589,-9.513 30.643,-7.741C32.696,-5.97 33.852,-3.613 34.108,-0.669L26.818,-0.669Z" style="fill:white;fill-rule:nonzero;"/>
        </g>
    </g>
</svg>
